!!!OTL: Melusinalied (1-29), S. 76
!!!id: K1078
**kern
*clefG2
*k[b-]
*F:
{8c
8f
=1
4f
4c
16f
16f
8a
=2
8a
8g
4g}
=3
{8c
8e
=4
4.g
8a
8b-
8cc
=5
2a}
=6
{8f
8a
=7
4cc
8cc
8ff
16ee
16dd
8dd
=8
8cc
8dd
4cc}
=9
{8b-
8a
=10
8g
8b-
4b-
8.cc
16b-
=11
2a}
=12
{8f
8a
=13
4cc
8cc
8ff
16ee
16dd
8dd
=14
8cc
8dd
4cc}
=15
{8b-
8a
=16
8g
8b-
4b-
8.cc
16b-
=17
4.a}
8r
==
*-
!!!minrhy: 16
!!!meters: 3/4 ]  ZZ[6
!!!cut: Melusinalied (1-29), S. 76
!!!reg: Luxemburg
!!!trd: KINTZELE, Guillaume: An der Ucht, Bd. 1, Luxemburg 1926
!!!rhy1: X_X_  X__X__XXX_  X_X_X__
!!!rhy2: X_X_  X__.X_X_X_  X___
!!!key: K1078  16  F 3/4 ]  ZZ[6
!!!mod: HEPTATONIK IONISCH]  AMBITUS[11
!!!kad: 235353
!!!akz: 13_23_55_23_55_23_
!!!fot: 'a__b__c__d__c__d__
!!!for: 'a__b__c__d__c__dv_
!!!fok: '/__^a_^a_Sd_^a_Sd_
!! PHRAS[AUFTAKTIG]
!!!fkt: Legende: Untreue, Tod
!!!bem: in der Quelle mit einer 2. Stimme versehen
!! KINTZELE
!! PR[14] 2K[4] 2G[5] 3K[5] 3G[3] 4A[11] 4Ü[0] 5A[0] 6K[0] 6G[4]
!! 7K[1] 7G[0] 8A[0] MEHR[0] SI[33] ABS[79] SR[9] SP[24]
!! ST[16] 2k[6] 2g[24] 3k[14] 3g[4] 4d[5] 4ü[0] 5d[0] 6k[0] 6g[0]
!! 7k[0] 7g[0] 8d[0] mehr[0] si[53] dm[-20] sr[30] sp[23]
!! 1F[1] 2F[66] 3F[17] 4F[3] LF[0] 2P[1] 3P[10] 4P[0] TRI[0] DF[6] AB[86]
!! TF[0] U3K[0] U3[4] U4[0] U4Ü[0] U5[16] U6K[0] U6[10] U7K[0] U7[9]
!! N1[19] N2K[0] N2[20] N3K[0] N3[13] N4[5] N4Ü[1] N5[4] N6K[0] N6[0]
!!!n7k: 0] N7[0] O1[0] O2K[0] O2[0] O3K[0] O3[0] HÖ[0
